X: 1026
T: Aloe Vera, The
R: reel
M: 4/4
K: Emajor
B2 GB EBGB|AF ~F2 =DAFA|B2 GB eBGB|AFDF E3 ^A|
BEGB EBGB|AF ~F2 =DAFA|B2 GB eBGB|AFDF E3 e||
BeeB gefe|dBBc dBfd|egBe gefe|dBcd e3 d|
e2 Be gefe|dB ~B2 defd|e2 B/=c/^c =dcBA|GBAF E3 ^A||

